img/friendlist.svg

<svg xmlns="http://www.w3.org/2000/svg" viewBox="0 0 100 125" style="enable-background:new 0 0 100 100" xml:space="preserve">
    <path d="M61.6 52.6c7.6 0 13.9-6.2 13.9-13.9 0-7.6-6.2-13.9-13.9-13.9S47.7 31 47.7 38.7c.1 7.7 6.3 13.9 13.9 13.9zm0-23.7c5.4 0 9.9 4.4 9.9 9.9 0 5.4-4.4 9.9-9.9 9.9s-9.9-4.4-9.9-9.9c.1-5.5 4.5-9.9 9.9-9.9zM54.7 56.3C44 56.3 35.3 65 35.3 75.6c0 3 2.4 5.4 5.4 5.4h41.9c3 0 5.4-2.4 5.4-5.4 0-10.7-8.7-19.3-19.3-19.3h-14zm29.2 19.3c0 .8-.6 1.4-1.4 1.4H40.7c-.8 0-1.4-.6-1.4-1.4 0-8.5 6.9-15.3 15.3-15.3h13.9c8.6 0 15.4 6.9 15.4 15.3zM30.6 45.2c6.4 0 11.6-5.2 11.6-11.6S37 22 30.6 22 19 27.2 19 33.6s5.3 11.6 11.6 11.6zm0-19.2c4.2 0 7.6 3.4 7.6 7.6s-3.4 7.6-7.6 7.6-7.6-3.4-7.6-7.6 3.5-7.6 7.6-7.6z"/>
    <path d="M13.7 68.1H32c1.1 0 2-.9 2-2s-.9-2-2-2H13.7c-.4 0-.7-.3-.7-.7 0-6.6 5.4-12 12-12h11.3c2.8 0 5.5 1 7.6 2.7.9.7 2.1.6 2.8-.3.7-.9.6-2.1-.3-2.8-2.9-2.3-6.5-3.6-10.1-3.6H25c-8.8 0-16 7.2-16 16 0 2.6 2.1 4.7 4.7 4.7z"/>
</svg>

<svg xmlns="http://www.w3.org/2000/svg" xmlns:xlink="http://www.w3.org/1999/xlink" version="1.1" x="0px" y="0px" viewBox="0 0 100 125" style="enable-background:new 0 0 100 100;" xml:space="preserve"><g><path d="M61.6,52.6c7.6,0,13.9-6.2,13.9-13.9c0-7.6-6.2-13.9-13.9-13.9s-13.9,6.2-13.9,13.9C47.8,46.4,54,52.6,61.6,52.6z    M61.6,28.9c5.4,0,9.9,4.4,9.9,9.9c0,5.4-4.4,9.9-9.9,9.9s-9.9-4.4-9.9-9.9C51.8,33.3,56.2,28.9,61.6,28.9z"/><path d="M54.7,56.3C44,56.3,35.3,65,35.3,75.6c0,3,2.4,5.4,5.4,5.4h41.9c3,0,5.4-2.4,5.4-5.4c0-10.7-8.7-19.3-19.3-19.3H54.7z    M83.9,75.6c0,0.8-0.6,1.4-1.4,1.4H40.7c-0.8,0-1.4-0.6-1.4-1.4c0-8.5,6.9-15.3,15.3-15.3h13.9C77.1,60.3,83.9,67.2,83.9,75.6z"/><path d="M30.6,45.2c6.4,0,11.6-5.2,11.6-11.6S37,22,30.6,22s-11.6,5.2-11.6,11.6S24.3,45.2,30.6,45.2z M30.6,26   c4.2,0,7.6,3.4,7.6,7.6s-3.4,7.6-7.6,7.6s-7.6-3.4-7.6-7.6S26.5,26,30.6,26z"/><path d="M13.7,68.1H32c1.1,0,2-0.9,2-2s-0.9-2-2-2H13.7c-0.4,0-0.7-0.3-0.7-0.7c0-6.6,5.4-12,12-12h11.3c2.8,0,5.5,1,7.6,2.7   c0.9,0.7,2.1,0.6,2.8-0.3c0.7-0.9,0.6-2.1-0.3-2.8c-2.9-2.3-6.5-3.6-10.1-3.6H25c-8.8,0-16,7.2-16,16C9,66,11.1,68.1,13.7,68.1z"/></g></svg>
